X:9
T:GB/6a/9 Banks of Green Willow Version 1 of 2
%%VWML:GB-6a-9-0
F:http://www.vwml.org/record/GB/6a/9
C:Transcribed by Simon Furey and Lewis Jones
W:
W:Butterworth has a minim as his last note; this has been changed to a crochet.
L:1/8
Q:1/4=120
M:3/4
I:linebreak $
K:A
AB | c3 d B>c | A>B E2 AG | F2 D2 B2 | BG !fermata!E2 EA |$ A2 E2 C>B, | A,>C E2 E2 | F2 d2 B2 |
cB A2 |]



